Sources/FrostedUI/Resources/Icons.xcassets/parachute12.imageset/parachute-12.svg

<svg width="12" height="12" viewBox="0 0 12 12" fill="none" xmlns="http://www.w3.org/2000/svg" data-fui-icon="true">
  <path
    d="M6 0C8.83635 1.70664e-07 10.3761 1.52301 11.1641 3.02734C11.5494 3.76301 11.7562 4.49035 11.8672 5.02832C11.923 5.2989 11.9558 5.52619 11.9746 5.68848C11.984 5.76965 11.9895 5.83507 11.9932 5.88184C11.995 5.90506 11.9972 5.92367 11.998 5.9375C11.9985 5.94444 11.9988 5.95064 11.999 5.95508V5.96387L11.9912 6.1123C11.9692 6.25749 11.9049 6.39462 11.8047 6.50488L9.5 9.04004V10.7402C9.49987 11.4359 8.93593 11.9999 8.24023 12H3.75977C3.06407 11.9999 2.50013 11.4359 2.5 10.7402V9.04004L0.195312 6.50488C0.0615096 6.3577 -0.00848472 6.16255 0.000976562 5.96387V5.95508C0.00122124 5.95064 0.00151622 5.94444 0.00195312 5.9375C0.00282531 5.92367 0.00499371 5.90506 0.00683594 5.88184C0.0105477 5.83507 0.0160065 5.76965 0.0253906 5.68848C0.044159 5.52619 0.0769841 5.2989 0.132812 5.02832C0.243822 4.49035 0.450613 3.76301 0.835938 3.02734C1.62392 1.52301 3.16365 0 6 0ZM4 10.5H8V9.5H4V10.5ZM3.375 5.5C2.66562 5.5 2.15966 5.74424 1.83008 5.98242C1.81326 5.99458 1.79716 6.00743 1.78125 6.01953L3.58203 8H5.25V6.27246C5.17275 6.19131 5.06382 6.08643 4.91992 5.98242C4.59034 5.74424 4.08438 5.5 3.375 5.5ZM8.625 5.5C7.91561 5.5 7.40966 5.74424 7.08008 5.98242C6.93618 6.08643 6.82725 6.19131 6.75 6.27246V8H8.41797L10.2178 6.01953C10.2021 6.00759 10.1865 5.99442 10.1699 5.98242C9.84034 5.74424 9.33438 5.5 8.625 5.5ZM6 1.5C3.83644 1.5 2.7511 2.60204 2.16406 3.72266C2.0714 3.89955 1.99202 4.07773 1.92285 4.25195C2.3344 4.10138 2.81815 4 3.375 4C4.45677 4 5.26373 4.3808 5.79883 4.76758C5.87057 4.81945 5.93797 4.87073 6 4.92188C6.06203 4.87073 6.12943 4.81945 6.20117 4.76758C6.73627 4.3808 7.54323 4 8.625 4C9.18146 4 9.66481 4.10155 10.0762 4.25195C10.007 4.07784 9.92854 3.89944 9.83594 3.72266C9.2489 2.60204 8.16356 1.5 6 1.5Z"
    fill="currentColor"
  />
</svg>

<svg xmlns="http://www.w3.org/2000/svg" width="12" height="12" fill="none" data-fui-icon="true" viewBox="0 0 12 12"><path fill="currentColor" d="M6 0c2.836 0 4.376 1.523 5.164 3.027.385.736.592 1.463.703 2.001a8 8 0 0 1 .126.854l.005.056.001.017v.009l-.008.148a.75.75 0 0 1-.186.393L9.5 9.04v1.7A1.26 1.26 0 0 1 8.24 12H3.76a1.26 1.26 0 0 1-1.26-1.26v-1.7L.195 6.505a.75.75 0 0 1-.194-.541v-.009l.001-.018q.001-.02.005-.055.005-.07.018-.194c.02-.162.052-.39.108-.66a7.7 7.7 0 0 1 .703-2C1.624 1.522 3.164 0 6 0M4 10.5h4v-1H4zm-.625-5c-.71 0-1.215.244-1.545.482l-.049.038L3.582 8H5.25V6.272a2.4 2.4 0 0 0-.33-.29A2.6 2.6 0 0 0 3.375 5.5m5.25 0c-.71 0-1.215.244-1.545.482a2.4 2.4 0 0 0-.33.29V8h1.668l1.8-1.98q-.023-.019-.048-.038A2.6 2.6 0 0 0 8.625 5.5M6 1.5c-2.164 0-3.249 1.102-3.836 2.223a6 6 0 0 0-.241.529C2.334 4.102 2.818 4 3.375 4A4.08 4.08 0 0 1 6 4.922q.094-.077.201-.154A4.1 4.1 0 0 1 8.625 4c.556 0 1.04.102 1.451.252a6 6 0 0 0-.24-.53C9.249 2.603 8.164 1.5 6 1.5"/></svg>
